packages/icons/src/components/Icon/assets/default-outline/privacy.svg

<svg width="20" height="20" viewBox="0 0 20 20" fill="none" xmlns="http://www.w3.org/2000/svg">
<path fill-rule="evenodd" clip-rule="evenodd" d="M9.54307 2.18262C9.80018 1.93913 10.2028 1.93913 10.4599 2.18262C12.0315 3.67101 14.1519 4.5829 16.4867 4.5829C16.5239 4.5829 16.561 4.58266 16.598 4.58221C16.889 4.57859 17.1487 4.76414 17.2396 5.0406C17.5664 6.03463 17.743 7.09608 17.743 8.19744C17.743 10.9796 16.6182 13.4985 14.7989 15.3248C14.7919 15.3322 14.7847 15.3394 14.7773 15.3464C13.522 16.599 11.9388 17.5231 10.1677 17.979C10.0587 18.007 9.94432 18.007 9.83532 17.979C8.06423 17.5231 6.48104 16.5991 5.22574 15.3465C5.21836 15.3394 5.21118 15.3322 5.20419 15.3249C3.38477 13.4986 2.26001 10.9796 2.26001 8.19744C2.26001 7.09608 2.43654 6.03463 2.76336 5.0406C2.85425 4.76414 3.11396 4.57859 3.40495 4.58221C3.44199 4.58266 3.47909 4.5829 3.51624 4.5829C5.85106 4.5829 7.97147 3.67101 9.54307 2.18262ZM6.60602 14.8117C7.57436 15.6549 8.72962 16.2889 10.0015 16.6432C11.2734 16.2889 12.4287 15.6548 13.397 14.8117C13.0293 14.429 12.6379 14.1571 12.2063 13.967C11.6129 13.7056 10.9024 13.5809 10.0016 13.5809C9.10074 13.5809 8.39017 13.7056 7.79677 13.967C7.36521 14.1571 6.97379 14.4291 6.60602 14.8117ZM14.3337 13.8623C13.8632 13.3787 13.3394 13.0092 12.7438 12.7468C11.9291 12.3879 11.0207 12.2476 10.0016 12.2476C8.98243 12.2476 8.07401 12.3879 7.25928 12.7468C6.66362 13.0092 6.13982 13.3788 5.66931 13.8624C4.37429 12.3343 3.59334 10.3569 3.59334 8.19744C3.59334 7.40505 3.69831 6.63809 3.8948 5.90926C6.21568 5.82368 8.33738 4.95444 10.0015 3.55928C11.6656 4.95444 13.7873 5.82368 16.1082 5.90926C16.3047 6.63809 16.4096 7.40505 16.4096 8.19744C16.4096 10.3568 15.6287 12.3343 14.3337 13.8623ZM10.0016 6.5061C9.06731 6.5061 8.30996 7.26345 8.30996 8.1977C8.30996 9.13195 9.06731 9.8893 10.0016 9.8893C10.9358 9.8893 11.6932 9.13195 11.6932 8.1977C11.6932 7.26345 10.9358 6.5061 10.0016 6.5061ZM6.97662 8.1977C6.97662 6.52707 8.33093 5.17276 10.0016 5.17276C11.6722 5.17276 13.0265 6.52707 13.0265 8.1977C13.0265 9.86833 11.6722 11.2226 10.0016 11.2226C8.33093 11.2226 6.97662 9.86833 6.97662 8.1977Z" fill="#727683"/>
</svg>

<svg xmlns="http://www.w3.org/2000/svg" width="20" height="20" fill="none" viewBox="0 0 20 20">
    <path fill="#727683" fill-rule="evenodd" d="M9.543 2.183a.667.667 0 0 1 .917 0 8.73 8.73 0 0 0 6.138 2.4.67.67 0 0 1 .642.458c.326.994.503 2.055.503 3.156a10.07 10.07 0 0 1-2.966 7.15 10.1 10.1 0 0 1-4.61 2.632.7.7 0 0 1-.332 0 10.1 10.1 0 0 1-4.63-2.654A10.07 10.07 0 0 1 2.26 8.197c0-1.1.177-2.162.503-3.156a.67.67 0 0 1 .642-.459h.111a8.73 8.73 0 0 0 6.027-2.4m-2.937 12.63a8.74 8.74 0 0 0 3.396 1.831 8.75 8.75 0 0 0 3.395-1.831 3.7 3.7 0 0 0-1.19-.845c-.594-.261-1.305-.386-2.205-.386s-1.612.125-2.205.386c-.432.19-.823.462-1.191.845m7.728-.95a5 5 0 0 0-1.59-1.115c-.815-.36-1.723-.5-2.742-.5-1.02 0-1.928.14-2.743.5a5 5 0 0 0-1.59 1.115 8.73 8.73 0 0 1-2.076-5.665c0-.792.105-1.559.302-2.288a10.06 10.06 0 0 0 6.107-2.35 10.06 10.06 0 0 0 6.106 2.35c.197.73.302 1.496.302 2.288 0 2.16-.781 4.137-2.076 5.665m-4.332-7.356a1.692 1.692 0 1 0 0 3.383 1.692 1.692 0 0 0 0-3.383M6.977 8.198a3.025 3.025 0 1 1 6.05 0 3.025 3.025 0 0 1-6.05 0" clip-rule="evenodd"/>
</svg>
